BMW Web App/client/src/assets/carIconColored.svg

<svg version="1.1" xmlns="http://www.w3.org/2000/svg" xmlns:xlink="http://www.w3.org/1999/xlink" width="19" height="19" viewBox="0,0,256,256"><g fill="none" fill-rule="nonzero" stroke="#354f52" stroke-width="1.6" stroke-linecap="round" stroke-linejoin="round" stroke-miterlimit="10" stroke-dasharray="" stroke-dashoffset="0" font-family="none" font-weight="none" font-size="none" text-anchor="none" style="mix-blend-mode: normal"><g transform="translate(-0.00862,-10.66253) scale(13.47368,13.47368)"><path d="M15.0423,13.4577h1.5834c0.475,0 0.7916,-0.3167 0.7916,-0.7917v-2.375c0,-0.71248 -0.5541,-1.34582 -1.1875,-1.50415c-1.425,-0.39583 -3.5625,-0.87083 -3.5625,-0.87083c0,0 -1.0291,-1.10834 -1.7416,-1.82084c-0.3959,-0.31666 -0.8709,-0.55416 -1.42505,-0.55416h-5.54167c-0.475,0 -0.87083,0.31666 -1.10833,0.7125l-1.10833,2.29583c-0.10483,0.30576 -0.15834,0.62677 -0.15834,0.95v3.16665c0,0.475 0.31667,0.7917 0.79167,0.7917h1.58333"></path><path d="M5.54232,15.0417c0.87445,0 1.58333,-0.7089 1.58333,-1.5834c0,-0.8744 -0.70888,-1.5833 -1.58333,-1.5833c-0.87445,0 -1.58334,0.7089 -1.58334,1.5833c0,0.8745 0.70889,1.5834 1.58334,1.5834z"></path><path d="M7.125,13.459h4.75"></path><path d="M13.4583,15.0417c0.8745,0 1.5834,-0.7089 1.5834,-1.5834c0,-0.8744 -0.7089,-1.5833 -1.5834,-1.5833c-0.8744,0 -1.5833,0.7089 -1.5833,1.5833c0,0.8745 0.7089,1.5834 1.5833,1.5834z"></path></g></g></svg>

<svg width="19" height="19" viewBox="0 0 19 19" fill="none" xmlns="http://www.w3.org/2000/svg">
<path d="M15.0423 13.4577H16.6257C17.1007 13.4577 17.4173 13.141 17.4173 12.666V10.291C17.4173 9.57852 16.8632 8.94518 16.2298 8.78685C14.8048 8.39102 12.6673 7.91602 12.6673 7.91602C12.6673 7.91602 11.6382 6.80768 10.9257 6.09518C10.5298 5.77852 10.0548 5.54102 9.50065 5.54102H3.95898C3.48398 5.54102 3.08815 5.85768 2.85065 6.25352L1.74232 8.54935C1.63749 8.85511 1.58398 9.17612 1.58398 9.49935V12.666C1.58398 13.141 1.90065 13.4577 2.37565 13.4577H3.95898" stroke="#2563EB" stroke-width="1.6" stroke-linecap="round" stroke-linejoin="round"/>
<path d="M5.54232 15.0417C6.41677 15.0417 7.12565 14.3328 7.12565 13.4583C7.12565 12.5839 6.41677 11.875 5.54232 11.875C4.66787 11.875 3.95898 12.5839 3.95898 13.4583C3.95898 14.3328 4.66787 15.0417 5.54232 15.0417Z" stroke="#2563EB" stroke-width="1.6" stroke-linecap="round" stroke-linejoin="round"/>
<path d="M7.125 13.459H11.875" stroke="#2563EB" stroke-width="1.6" stroke-linecap="round" stroke-linejoin="round"/>
<path d="M13.4583 15.0417C14.3328 15.0417 15.0417 14.3328 15.0417 13.4583C15.0417 12.5839 14.3328 11.875 13.4583 11.875C12.5839 11.875 11.875 12.5839 11.875 13.4583C11.875 14.3328 12.5839 15.0417 13.4583 15.0417Z" stroke="#2563EB" stroke-width="1.6" stroke-linecap="round" stroke-linejoin="round"/>
</svg>
